X:1
T:Les Orientales
T:Malédiction
T:A Madame Ch. Lamoureux (BRUNET-LAFLEUR) 
T:Les Orientales
T:5. Malédiction
T:Marie Jaëll 
T:Victor Hugo 
T:Creative Commons copyright waiver (CC0 1.0 Universal)
T:Creative Commons copyright waiver (CC0 1.0 Universal)
T:Creative Commons copyright waiver (CC0 1.0 Universal)
T:Creative Commons copyright waiver (CC0 1.0 Universal)
T:Creative Commons copyright waiver (CC0 1.0 Universal)
T:Creative Commons copyright waiver (CC0 1.0 Universal)
T:Creative Commons copyright waiver (CC0 1.0 Universal)
C:Marie Jaëll
Z:Victor Hugo
Z:Creative Commons copyright waiver (CC0 1.0 Universal)
L:1/8
Q:1/4=172
M:6/4
K:Bb
V:1 treble nm="Chant\nVoice"
V:1
"^Très vite""^TRANSCRIBER: please ignore the \n6/8\n time signature in the IMSLP edition  \n- it is clearly a mistake by the original engraver, as this song is definitely in \n6/4\n time\n" z4 z2 z4 z D | %1
w: Qu'il|
 D4- D D D4- D D | D6- D2 z2 z2 | z12 | z4 z2 z2 D2 D2 | D4 D D ^F3 D D D | G4 A2 A2 G2 ^C2 | %7
w: er- * re sans _ re-|\- pos, _||En des|sa- bles sans borne où le so-|\- leil re- nais- se Si-|
 ^C6- C2 C C C2 | D6 z2 z4 | z12 | z12 | z12 | z12 | z12 | z4 z2 z2 ^C C D D | E E D2 z8 | z12 | %17
w: tôt _ qu'il au- ra|lui!||||||En des gla- ci-|ers po- lis||
 z12 | z12 | z12 | z12 | z12 | z12 | z12 | =E4 E z !>!A2 !>!B2 !>!=B2 | !>!c6- c2 z2 z z | z12 | %27
w: |||||||Di- se: "Je n'ai rien|fait!" _||
 z12 | z12 | z12 | z12 | z12 | z12 | z2 z2 D2 z D D2 D D | D6 z A ^G4- | G2- G z z8 | z12 | z12 | %38
w: ||||||Que, vi- sible à lui|seul, la mort,|_ _|||
 z12 | z12 | z12 | z12 | B3/2 B/ f4 B3/2 B/ f4 | z12 | z12 | z12 | z12 | z12 | %48
w: ||||Cha- que coup de sa dent!||||||
 z"^TRANSCRIBER and REVIEWER: better to use the text on Lieder.net:  \"\nOu\n la pluie à ruisseaux!\":\n\"Que sur ses membres nus tombe un soleil de flamme \nou\n la pluie à ruisseaux!\"\n\"\nOù\n la pluie à ruisseaux!\" doesn't make sense...   See also: https://poesie.webnet.fr/lesgrandsclassiques/Poemes/victor_hugo/malediction\n" G G G B B G2 G2 ^c c | %49
w: Que sur ses mem- bres nus tombe un so-|
!<(! d3 d!<)! e2- e4 d B | G2 E E D2 z4 z2 | z12 | z12 | z12 | z12 | z12 | z12 | z12 | z12 | z12 |] %60
w: leil de flam- me Ou la|pluie à ruis- seaux!||||||||||

